X:1
T: The Manchester Reel
C:
R:Reel
Q: 232
K:A
M:4/4
L:1/8
E2|:Ee ed cA BG|AF dF DE FD|Ee ed cA BG|AF dF ((3EEE) E2|
Ee ed cA BG|AF dF DE FD|Ee ed cA BG|AF dF ((3EEE) E2:|
|:eg Bg eg bg|fe de fg af|eg Bg eg bg|fe df e2 e2|
eg Bg eg bg|fe de fg af|ec BA GB dc|BG AF ((3EEE) E2:|
